public/images/practice/locked-fortress.svg

<svg xmlns="http://www.w3.org/2000/svg" viewBox="0 0 512 512" style="height: 512px; width: 512px;"><g class="" transform="translate(0,0)" style=""><path d="M102.78 20.625V113.5L149 165.22v183.03h-25.875L99.53 489.156h319.94L395.874 348.25H370.03V165.22l46.22-51.72V20.625h-53.938v43.97H329.47v-43.97h-53.94v43.97h-32.436v-43.97h-53.938v43.97H156.72v-43.97h-53.94zM263.813 157.72c30.17 0 54.625 24.455 54.625 54.624 0 20.84-11.65 38.946-28.812 48.156l27.625 140.25H210.375L238 260.5c-17.148-9.214-28.813-27.326-28.813-48.156 0-30.17 24.457-54.625 54.625-54.625z" fill="#fff" fill-opacity="1"></path></g></svg>

<svg xmlns="http://www.w3.org/2000/svg" viewBox="0 0 512 512"><path fill="#fff" d="M102.78 20.63v92.87L149 165.22v183.03h-25.88l-23.59 140.9h319.94l-23.6-140.9h-25.84V165.22l46.22-51.72V20.62h-53.94V64.6h-32.84V20.63h-53.94V64.6h-32.44V20.63h-53.93V64.6h-32.44V20.63h-53.94zm161.03 137.09a54.62 54.62 0 0 1 25.82 102.78l27.62 140.25H210.37L238 260.5a54.63 54.63 0 0 1 25.81-102.78z"/></svg>
